Icons/com_google_android_apps_enterprise_cpanel.svg

<svg viewBox="0 0 48 48" xmlns:xlink="http://www.w3.org/1999/xlink">
 <defs>
  <linearGradient id="0">
   <stop stop-opacity="0"/>
   <stop offset="1"/>
  </linearGradient>
  <linearGradient xlink:href="#0" id="1" gradientUnits="userSpaceOnUse" gradientTransform="translate(4e-7,-48)" y1="47" x2="0" y2="1"/>
  <clipPath id="2">
   <g transform="translate(0,-1004.3622)">
    <rect rx="4" y="1005.36" x="1" height="46" width="46" fill="#1890d0"/>
   </g>
  </clipPath>
  <clipPath id="3">
   <g transform="translate(0,-1004.3622)">
    <rect rx="4" y="1005.36" x="1" height="46" width="46" fill="#1890d0"/>
   </g>
  </clipPath>
 </defs>
 <g>
  <g transform="translate(0,-1004.3622)">
   <path d="m 5,1006.3622 c -2.216,0 -4,1.784 -4,4 l 0,37.25 c 0,2.216 1.784,4 4,4 l 38,0 c 2.216,0 4,-1.784 4,-4 l 0,-37.25 c 0,-2.216 -1.784,-4 -4,-4 l -38,0 z m -4,41.5 0,0.5 c 0,2.216 1.784,4 4,4 l 38,0 c 2.216,0 4,-1.784 4,-4 l 0,-0.5 c 0,2.216 -1.784,4 -4,4 l -38,0 c -2.216,0 -4,-1.784 -4,-4 z" opacity="0.02"/>
   <path d="m 1,1047.6122 0,0.25 c 0,2.216 1.784,4 4,4 l 38,0 c 2.216,0 4,-1.784 4,-4 l 0,-0.25 c 0,2.216 -1.784,4 -4,4 l -38,0 c -2.216,0 -4,-1.784 -4,-4 z" opacity="0.05"/>
   <rect width="46" height="46" x="1" y="1005.61" rx="4" opacity="0.1"/>
  </g>
 </g>
 <g>
  <g transform="translate(0,-1004.3622)">
   <rect rx="4" y="1005.36" x="1" height="46" width="46" fill="#a0a0a0"/>
  </g>
 </g>
 <g>
  <rect transform="scale(1,-1)" width="46" height="46" x="1" y="-46.998" rx="4" opacity="0.1" fill="url(#1)"/>
 </g>
 <g>
  <g clip-path="url(#2)">
   <g opacity="0.1">
    <g>
     <path d="M 37 22.15625 L 37 25.914062 C 37 26.046875 36.953125 26.179688 36.863281 26.300781 C 36.773438 26.425781 36.660156 26.5 36.527344 26.523438 L 33.394531 26.996094 C 33.179688 27.605469 32.960938 28.117188 32.734375 28.535156 C 33.128906 29.101562 33.734375 29.878906 34.546875 30.871094 C 34.660156 31.007812 34.714844 31.148438 34.714844 31.296875 C 34.714844 31.441406 34.664062 31.570312 34.5625 31.683594 C 34.257812 32.101562 33.699219 32.710938 32.886719 33.511719 C 32.074219 34.3125 31.542969 34.714844 31.296875 34.714844 C 31.160156 34.714844 31.011719 34.664062 30.855469 34.5625 L 28.519531 32.734375 C 28.023438 32.992188 27.507812 33.207031 26.980469 33.378906 C 26.796875 34.914062 26.636719 35.960938 26.488281 36.527344 C 26.410156 36.84375 26.207031 37 25.878906 37 L 22.121094 37 C 21.964844 37 21.824219 36.953125 21.707031 36.855469 C 21.585938 36.761719 21.523438 36.640625 21.511719 36.492188 L 21.039062 33.378906 C 20.484375 33.195312 19.976562 32.988281 19.515625 32.75 L 17.128906 34.5625 C 17.015625 34.664062 16.875 34.714844 16.703125 34.714844 C 16.546875 34.714844 16.40625 34.652344 16.28125 34.527344 C 14.859375 33.242188 13.929688 32.292969 13.488281 31.683594 C 13.410156 31.570312 13.371094 31.441406 13.371094 31.296875 C 13.371094 31.160156 13.414062 31.03125 13.503906 30.90625 C 13.675781 30.667969 13.960938 30.292969 14.367188 29.78125 C 14.773438 29.265625 15.078125 28.871094 15.28125 28.585938 C 14.976562 28.023438 14.746094 27.464844 14.589844 26.910156 L 11.492188 26.453125 C 11.34375 26.433594 11.226562 26.359375 11.136719 26.242188 C 11.046875 26.125 11 25.992188 11 25.84375 L 11 22.085938 C 11 21.953125 11.046875 21.820312 11.136719 21.699219 C 11.226562 21.574219 11.332031 21.5 11.457031 21.476562 L 14.605469 21.003906 C 14.761719 20.484375 14.984375 19.964844 15.265625 19.445312 C 14.8125 18.804688 14.210938 18.023438 13.453125 17.109375 C 13.339844 16.976562 13.285156 16.839844 13.285156 16.703125 C 13.285156 16.589844 13.335938 16.460938 13.4375 16.316406 C 13.730469 15.910156 14.285156 15.300781 15.105469 14.496094 C 15.921875 13.6875 16.457031 13.285156 16.703125 13.285156 C 16.851562 13.285156 16.996094 13.339844 17.144531 13.453125 L 19.480469 15.265625 C 19.976562 15.007812 20.492188 14.792969 21.019531 14.621094 C 21.203125 13.085938 21.363281 12.039062 21.511719 11.472656 C 21.589844 11.15625 21.792969 11 22.121094 11 L 25.878906 11 C 26.035156 11 26.175781 11.046875 26.292969 11.144531 C 26.414062 11.238281 26.476562 11.359375 26.488281 11.507812 L 26.960938 14.621094 C 27.515625 14.804688 28.023438 15.011719 28.484375 15.25 L 30.890625 13.4375 C 30.992188 13.335938 31.125 13.285156 31.296875 13.285156 C 31.441406 13.285156 31.582031 13.339844 31.71875 13.453125 C 33.175781 14.796875 34.105469 15.757812 34.511719 16.332031 C 34.589844 16.421875 34.628906 16.546875 34.628906 16.703125 C 34.628906 16.839844 34.585938 16.96875 34.496094 17.09375 C 34.324219 17.332031 34.039062 17.707031 33.632812 18.21875 C 33.226562 18.734375 32.921875 19.128906 32.71875 19.414062 C 33.011719 19.976562 33.242188 20.53125 33.410156 21.070312 L 36.507812 21.546875 C 36.65625 21.566406 36.773438 21.636719 36.863281 21.757812 C 36.953125 21.875 37 22.007812 37 22.15625 Z M 37 22.15625 "/>
     <path d="M 21 18.8125 C 19.207031 19.851562 18 21.777344 18 24 C 18 26.222656 19.207031 28.148438 21 29.1875 L 21 33.375 C 21.011719 33.378906 21.019531 33.371094 21.03125 33.375 L 21.5 36.5 C 21.511719 36.648438 21.601562 36.746094 21.71875 36.84375 C 21.835938 36.941406 21.96875 37 22.125 37 L 25.875 37 C 26.203125 37 26.421875 36.847656 26.5 36.53125 C 26.648438 35.96875 26.789062 34.910156 26.96875 33.375 C 26.976562 33.371094 26.992188 33.378906 27 33.375 L 27 29.1875 C 28.792969 28.148438 30 26.222656 30 24 C 30 21.777344 28.792969 19.851562 27 18.8125 L 27 22 L 24 24 L 21 22 Z M 21 18.8125 "/>
    </g>
   </g>
  </g>
 </g>
 <g>
  <g clip-path="url(#3)">
   <g transform="translate(0,-1)">
    <g>
     <path d="M 37 22.15625 L 37 25.914062 C 37 26.046875 36.953125 26.179688 36.863281 26.300781 C 36.773438 26.425781 36.660156 26.5 36.527344 26.523438 L 33.394531 26.996094 C 33.179688 27.605469 32.960938 28.117188 32.734375 28.535156 C 33.128906 29.101562 33.734375 29.878906 34.546875 30.871094 C 34.660156 31.007812 34.714844 31.148438 34.714844 31.296875 C 34.714844 31.441406 34.664062 31.570312 34.5625 31.683594 C 34.257812 32.101562 33.699219 32.710938 32.886719 33.511719 C 32.074219 34.3125 31.542969 34.714844 31.296875 34.714844 C 31.160156 34.714844 31.011719 34.664062 30.855469 34.5625 L 28.519531 32.734375 C 28.023438 32.992188 27.507812 33.207031 26.980469 33.378906 C 26.796875 34.914062 26.636719 35.960938 26.488281 36.527344 C 26.410156 36.84375 26.207031 37 25.878906 37 L 22.121094 37 C 21.964844 37 21.824219 36.953125 21.707031 36.855469 C 21.585938 36.761719 21.523438 36.640625 21.511719 36.492188 L 21.039062 33.378906 C 20.484375 33.195312 19.976562 32.988281 19.515625 32.75 L 17.128906 34.5625 C 17.015625 34.664062 16.875 34.714844 16.703125 34.714844 C 16.546875 34.714844 16.40625 34.652344 16.28125 34.527344 C 14.859375 33.242188 13.929688 32.292969 13.488281 31.683594 C 13.410156 31.570312 13.371094 31.441406 13.371094 31.296875 C 13.371094 31.160156 13.414062 31.03125 13.503906 30.90625 C 13.675781 30.667969 13.960938 30.292969 14.367188 29.78125 C 14.773438 29.265625 15.078125 28.871094 15.28125 28.585938 C 14.976562 28.023438 14.746094 27.464844 14.589844 26.910156 L 11.492188 26.453125 C 11.34375 26.433594 11.226562 26.359375 11.136719 26.242188 C 11.046875 26.125 11 25.992188 11 25.84375 L 11 22.085938 C 11 21.953125 11.046875 21.820312 11.136719 21.699219 C 11.226562 21.574219 11.332031 21.5 11.457031 21.476562 L 14.605469 21.003906 C 14.761719 20.484375 14.984375 19.964844 15.265625 19.445312 C 14.8125 18.804688 14.210938 18.023438 13.453125 17.109375 C 13.339844 16.976562 13.285156 16.839844 13.285156 16.703125 C 13.285156 16.589844 13.335938 16.460938 13.4375 16.316406 C 13.730469 15.910156 14.285156 15.300781 15.105469 14.496094 C 15.921875 13.6875 16.457031 13.285156 16.703125 13.285156 C 16.851562 13.285156 16.996094 13.339844 17.144531 13.453125 L 19.480469 15.265625 C 19.976562 15.007812 20.492188 14.792969 21.019531 14.621094 C 21.203125 13.085938 21.363281 12.039062 21.511719 11.472656 C 21.589844 11.15625 21.792969 11 22.121094 11 L 25.878906 11 C 26.035156 11 26.175781 11.046875 26.292969 11.144531 C 26.414062 11.238281 26.476562 11.359375 26.488281 11.507812 L 26.960938 14.621094 C 27.515625 14.804688 28.023438 15.011719 28.484375 15.25 L 30.890625 13.4375 C 30.992188 13.335938 31.125 13.285156 31.296875 13.285156 C 31.441406 13.285156 31.582031 13.339844 31.71875 13.453125 C 33.175781 14.796875 34.105469 15.757812 34.511719 16.332031 C 34.589844 16.421875 34.628906 16.546875 34.628906 16.703125 C 34.628906 16.839844 34.585938 16.96875 34.496094 17.09375 C 34.324219 17.332031 34.039062 17.707031 33.632812 18.21875 C 33.226562 18.734375 32.921875 19.128906 32.71875 19.414062 C 33.011719 19.976562 33.242188 20.53125 33.410156 21.070312 L 36.507812 21.546875 C 36.65625 21.566406 36.773438 21.636719 36.863281 21.757812 C 36.953125 21.875 37 22.007812 37 22.15625 Z M 37 22.15625 " fill="#537dbf"/>
     <path d="M 21 18.8125 C 19.207031 19.851562 18 21.777344 18 24 C 18 26.222656 19.207031 28.148438 21 29.1875 L 21 33.375 C 21.011719 33.378906 21.019531 33.371094 21.03125 33.375 L 21.5 36.5 C 21.511719 36.648438 21.601562 36.746094 21.71875 36.84375 C 21.835938 36.941406 21.96875 37 22.125 37 L 25.875 37 C 26.203125 37 26.421875 36.847656 26.5 36.53125 C 26.648438 35.96875 26.789062 34.910156 26.96875 33.375 C 26.976562 33.371094 26.992188 33.378906 27 33.375 L 27 29.1875 C 28.792969 28.148438 30 26.222656 30 24 C 30 21.777344 28.792969 19.851562 27 18.8125 L 27 22 L 24 24 L 21 22 Z M 21 18.8125 " fill="#fbcc43"/>
    </g>
   </g>
  </g>
 </g>
 <g>
  <g transform="translate(0,-1004.3622)">
   <path d="m 1,1043.3622 0,4 c 0,2.216 1.784,4 4,4 l 38,0 c 2.216,0 4,-1.784 4,-4 l 0,-4 c 0,2.216 -1.784,4 -4,4 l -38,0 c -2.216,0 -4,-1.784 -4,-4 z" opacity="0.1"/>
  </g>
 </g>
</svg>

<svg viewBox="0 0 48 48"><defs><linearGradient id="linearGradient3764" x1="1" x2="47" gradientUnits="userSpaceOnUse" gradientTransform="translate(-48.000001,0.00221467)"><stop stop-color="#969696" stop-opacity="1"/><stop offset="1" stop-color="#a0a0a0" stop-opacity="1"/></linearGradient><clipPath id="clipPath-596874023"><g transform="translate(0,-1004.3622)"><rect rx="4" y="1005.36" x="1" height="46" width="46" fill="#1890d0"/></g></clipPath><clipPath id="clipPath-610834886"><g transform="translate(0,-1004.3622)"><rect rx="4" y="1005.36" x="1" height="46" width="46" fill="#1890d0"/></g></clipPath></defs><g><path d="m 1 43 l 0 0.25 c 0 2.216 1.784 4 4 4 l 38 0 c 2.216 0 4 -1.784 4 -4 l 0 -0.25 c 0 2.216 -1.784 4 -4 4 l -38 0 c -2.216 0 -4 -1.784 -4 -4 z m 0 0.5 l 0 0.5 c 0 2.216 1.784 4 4 4 l 38 0 c 2.216 0 4 -1.784 4 -4 l 0 -0.5 c 0 2.216 -1.784 4 -4 4 l -38 0 c -2.216 0 -4 -1.784 -4 -4 z" opacity="0.02"/><path d="m 1 43.25 l 0 0.25 c 0 2.216 1.784 4 4 4 l 38 0 c 2.216 0 4 -1.784 4 -4 l 0 -0.25 c 0 2.216 -1.784 4 -4 4 l -38 0 c -2.216 0 -4 -1.784 -4 -4 z" opacity="0.05"/><path d="m 1 43 l 0 0.25 c 0 2.216 1.784 4 4 4 l 38 0 c 2.216 0 4 -1.784 4 -4 l 0 -0.25 c 0 2.216 -1.784 4 -4 4 l -38 0 c -2.216 0 -4 -1.784 -4 -4 z" opacity="0.1"/></g><g><rect width="46" height="46" x="-47" y="1" rx="4" transform="matrix(0,-1,1,0,0,0)" fill="url(#linearGradient3764)" fill-opacity="1"/></g><g><g clip-path="url(#clipPath-596874023)"><g opacity="0.1"><!-- color: #a0a0a0 --><g><path d="m 37 22.16 l 0 3.758 c 0 0.133 -0.047 0.266 -0.137 0.387 c -0.09 0.125 -0.203 0.199 -0.336 0.223 l -3.133 0.473 c -0.215 0.609 -0.434 1.121 -0.66 1.539 c 0.395 0.566 1 1.344 1.813 2.336 c 0.113 0.137 0.168 0.277 0.168 0.426 c 0 0.145 -0.051 0.273 -0.152 0.387 c -0.305 0.418 -0.863 1.027 -1.676 1.828 c -0.813 0.801 -1.344 1.203 -1.59 1.203 c -0.137 0 -0.285 -0.051 -0.441 -0.152 l -2.336 -1.828 c -0.496 0.258 -1.012 0.473 -1.539 0.645 c -0.184 1.535 -0.344 2.582 -0.492 3.148 c -0.078 0.316 -0.281 0.473 -0.609 0.473 l -3.758 0 c -0.156 0 -0.297 -0.047 -0.414 -0.145 c -0.121 -0.094 -0.184 -0.215 -0.195 -0.363 l -0.473 -3.113 c -0.555 -0.184 -1.063 -0.391 -1.523 -0.629 l -2.387 1.813 c -0.113 0.102 -0.254 0.152 -0.426 0.152 c -0.156 0 -0.297 -0.063 -0.422 -0.188 c -1.422 -1.285 -2.352 -2.234 -2.793 -2.844 c -0.078 -0.113 -0.117 -0.242 -0.117 -0.387 c 0 -0.137 0.043 -0.266 0.133 -0.391 c 0.172 -0.238 0.457 -0.613 0.863 -1.125 c 0.406 -0.516 0.711 -0.91 0.914 -1.195 c -0.305 -0.563 -0.535 -1.121 -0.691 -1.676 l -3.098 -0.457 c -0.148 -0.02 -0.266 -0.094 -0.355 -0.211 c -0.09 -0.117 -0.137 -0.25 -0.137 -0.398 l 0 -3.758 c 0 -0.133 0.047 -0.266 0.137 -0.387 c 0.09 -0.125 0.195 -0.199 0.32 -0.223 l 3.148 -0.473 c 0.156 -0.52 0.379 -1.039 0.66 -1.559 c -0.453 -0.641 -1.055 -1.422 -1.813 -2.336 c -0.113 -0.133 -0.168 -0.27 -0.168 -0.406 c 0 -0.113 0.051 -0.242 0.152 -0.387 c 0.293 -0.406 0.848 -1.016 1.668 -1.82 c 0.816 -0.809 1.352 -1.211 1.598 -1.211 c 0.148 0 0.293 0.055 0.441 0.168 l 2.336 1.813 c 0.496 -0.258 1.012 -0.473 1.539 -0.645 c 0.184 -1.535 0.344 -2.582 0.492 -3.148 c 0.078 -0.316 0.281 -0.473 0.609 -0.473 l 3.758 0 c 0.156 0 0.297 0.047 0.414 0.145 c 0.121 0.094 0.184 0.215 0.195 0.363 l 0.473 3.113 c 0.555 0.184 1.063 0.391 1.523 0.629 l 2.406 -1.813 c 0.102 -0.102 0.234 -0.152 0.406 -0.152 c 0.145 0 0.285 0.055 0.422 0.168 c 1.457 1.344 2.387 2.305 2.793 2.879 c 0.078 0.09 0.117 0.215 0.117 0.371 c 0 0.137 -0.043 0.266 -0.133 0.391 c -0.172 0.238 -0.457 0.613 -0.863 1.125 c -0.406 0.516 -0.711 0.91 -0.914 1.195 c 0.293 0.563 0.523 1.117 0.691 1.656 l 3.098 0.477 c 0.148 0.02 0.266 0.09 0.355 0.211 c 0.09 0.117 0.137 0.25 0.137 0.398 m 0 0" fill="#000"/><path d="m 21 18.813 c -1.793 1.039 -3 2.965 -3 5.188 c 0 2.223 1.207 4.148 3 5.188 l 0 4.188 c 0.012 0.004 0.02 -0.004 0.031 0 l 0.469 3.125 c 0.012 0.148 0.102 0.246 0.219 0.344 c 0.117 0.098 0.25 0.156 0.406 0.156 l 3.75 0 c 0.328 0 0.547 -0.152 0.625 -0.469 c 0.148 -0.563 0.289 -1.621 0.469 -3.156 c 0.008 -0.004 0.023 0.004 0.031 0 l 0 -4.188 c 1.793 -1.039 3 -2.965 3 -5.188 c 0 -2.223 -1.207 -4.148 -3 -5.188 l 0 3.188 l -3 2 l -3 -2 m 0 -3.188" fill="#000"/></g></g></g></g><g><g clip-path="url(#clipPath-610834886)"><g transform="translate(0,-1)"><!-- color: #a0a0a0 --><g><path d="m 37 22.16 l 0 3.758 c 0 0.133 -0.047 0.266 -0.137 0.387 c -0.09 0.125 -0.203 0.199 -0.336 0.223 l -3.133 0.473 c -0.215 0.609 -0.434 1.121 -0.66 1.539 c 0.395 0.566 1 1.344 1.813 2.336 c 0.113 0.137 0.168 0.277 0.168 0.426 c 0 0.145 -0.051 0.273 -0.152 0.387 c -0.305 0.418 -0.863 1.027 -1.676 1.828 c -0.813 0.801 -1.344 1.203 -1.59 1.203 c -0.137 0 -0.285 -0.051 -0.441 -0.152 l -2.336 -1.828 c -0.496 0.258 -1.012 0.473 -1.539 0.645 c -0.184 1.535 -0.344 2.582 -0.492 3.148 c -0.078 0.316 -0.281 0.473 -0.609 0.473 l -3.758 0 c -0.156 0 -0.297 -0.047 -0.414 -0.145 c -0.121 -0.094 -0.184 -0.215 -0.195 -0.363 l -0.473 -3.113 c -0.555 -0.184 -1.063 -0.391 -1.523 -0.629 l -2.387 1.813 c -0.113 0.102 -0.254 0.152 -0.426 0.152 c -0.156 0 -0.297 -0.063 -0.422 -0.188 c -1.422 -1.285 -2.352 -2.234 -2.793 -2.844 c -0.078 -0.113 -0.117 -0.242 -0.117 -0.387 c 0 -0.137 0.043 -0.266 0.133 -0.391 c 0.172 -0.238 0.457 -0.613 0.863 -1.125 c 0.406 -0.516 0.711 -0.91 0.914 -1.195 c -0.305 -0.563 -0.535 -1.121 -0.691 -1.676 l -3.098 -0.457 c -0.148 -0.02 -0.266 -0.094 -0.355 -0.211 c -0.09 -0.117 -0.137 -0.25 -0.137 -0.398 l 0 -3.758 c 0 -0.133 0.047 -0.266 0.137 -0.387 c 0.09 -0.125 0.195 -0.199 0.32 -0.223 l 3.148 -0.473 c 0.156 -0.52 0.379 -1.039 0.66 -1.559 c -0.453 -0.641 -1.055 -1.422 -1.813 -2.336 c -0.113 -0.133 -0.168 -0.27 -0.168 -0.406 c 0 -0.113 0.051 -0.242 0.152 -0.387 c 0.293 -0.406 0.848 -1.016 1.668 -1.82 c 0.816 -0.809 1.352 -1.211 1.598 -1.211 c 0.148 0 0.293 0.055 0.441 0.168 l 2.336 1.813 c 0.496 -0.258 1.012 -0.473 1.539 -0.645 c 0.184 -1.535 0.344 -2.582 0.492 -3.148 c 0.078 -0.316 0.281 -0.473 0.609 -0.473 l 3.758 0 c 0.156 0 0.297 0.047 0.414 0.145 c 0.121 0.094 0.184 0.215 0.195 0.363 l 0.473 3.113 c 0.555 0.184 1.063 0.391 1.523 0.629 l 2.406 -1.813 c 0.102 -0.102 0.234 -0.152 0.406 -0.152 c 0.145 0 0.285 0.055 0.422 0.168 c 1.457 1.344 2.387 2.305 2.793 2.879 c 0.078 0.09 0.117 0.215 0.117 0.371 c 0 0.137 -0.043 0.266 -0.133 0.391 c -0.172 0.238 -0.457 0.613 -0.863 1.125 c -0.406 0.516 -0.711 0.91 -0.914 1.195 c 0.293 0.563 0.523 1.117 0.691 1.656 l 3.098 0.477 c 0.148 0.02 0.266 0.09 0.355 0.211 c 0.09 0.117 0.137 0.25 0.137 0.398 m 0 0" fill="#537dbf"/><path d="m 21 18.813 c -1.793 1.039 -3 2.965 -3 5.188 c 0 2.223 1.207 4.148 3 5.188 l 0 4.188 c 0.012 0.004 0.02 -0.004 0.031 0 l 0.469 3.125 c 0.012 0.148 0.102 0.246 0.219 0.344 c 0.117 0.098 0.25 0.156 0.406 0.156 l 3.75 0 c 0.328 0 0.547 -0.152 0.625 -0.469 c 0.148 -0.563 0.289 -1.621 0.469 -3.156 c 0.008 -0.004 0.023 0.004 0.031 0 l 0 -4.188 c 1.793 -1.039 3 -2.965 3 -5.188 c 0 -2.223 -1.207 -4.148 -3 -5.188 l 0 3.188 l -3 2 l -3 -2 m 0 -3.188" fill="#fbcc43"/></g></g></g></g><g><g transform="translate(0,-1004.3622)"><path d="m 1 1043.36 0 4 c 0 2.216 1.784 4 4 4 l 38 0 c 2.216 0 4 -1.784 4 -4 l 0 -4 c 0 2.216 -1.784 4 -4 4 l -38 0 c -2.216 0 -4 -1.784 -4 -4 z" opacity="0.1"/></g></g></svg>
